X: 317
T:Swiss Boy - Quadrille. JaW. 316
M:2/4
Q:50
S:James Winder Ms, Lancashire, 1835-41
R:Quadrille
O:England
A:Wyresdale,Lancashire
N:NB1  .fc/c/ in bar 6 looks like it started as .f(c/d/), but the d/ has
N:been altered and "C" written above it..NB2  .c(b/a/) .gag in MS.CGP
H:1/8
Z:vmp.Chris Partington, Aug 2004
K:F
AB|.c(A/B/) .d(A/B/)|.c(a/g/) fc/c/|.c(b/a/) .g(a/g/)|.f(ag (A/B/)|!
.c(A/B/) .c(A/B/)|.c(a/g/) "NB1".fc/c/|.c(b/a/) .g(a/g/)|f2-f||!
c|.B(g/f/) ec|.c(a/g/) .fc/c/ |(B/c/g/f/) ec|.c(a/g/) .f(A/B/)|!
(c/B/)(A/B/) (c/B/)(A/B/)|.c(a/g/) (f/A/)c/c/|"NB2".c(b/a/) .ga/g/|faf|]
